svgs/matlog.svg

<svg width="24" height="24" viewBox="0 0 24 24" fill="none" xmlns="http://www.w3.org/2000/svg">
<path fill-rule="evenodd" clip-rule="evenodd" d="M4.55035 3.76938C3.64208 4.87395 2.76972 6.27891 2.38648 7.44074C2.06701 8.40911 1.7345 10.1672 2.3272 11.8268C2.3342 12.1202 2.03084 12.2744 2.03084 13.2493C1.89084 14.9748 2.33929 16.4632 3.63116 17.8131C6.31803 20.6209 11.11 21.7577 15.4853 20.5989C18.672 19.7549 21.15 17.6415 21.8273 15.146C21.9363 14.7446 22.0088 14.0246 21.9459 13.2493C21.897 12.6479 21.7024 12.1039 21.7088 11.8268C22.2422 9.7523 21.9329 8.34581 21.6495 7.44074C21.2685 6.22438 20.7058 5.39399 19.873 4.28954C18.9564 3.07377 18.7516 2.9045 18.3896 2.99542C17.8465 3.13174 15.5048 4.74024 14.6145 5.6133L13.7248 6.48588L11.9971 6.49963L10.2695 6.51338L9.38045 5.63772C8.23344 4.50789 5.9291 2.93994 5.4157 2.93994C5.31494 2.93994 4.92553 3.31323 4.55035 3.76938ZM5.46857 9.93391V10.5266H6.89107H8.31357V9.93391L8.31356 9.57449H6.89107H5.46857V9.93391ZM9.61753 9.93391V10.5266L11.9884 10.5228H14.2999H18.9823V9.93391V9.57449H14.2999H9.61753V9.93391ZM5.46857 11.8306V12.4233H6.89106H8.31357V11.8306V11.475H6.89106H5.46857V11.8306ZM9.61753 11.8306V12.4195H14.2999H18.9823V11.8306V11.4712H14.2999H9.61753V11.8306ZM5.46857 13.7272V14.32H6.89107H8.31357V13.7272V13.3716H6.89107H5.46857V13.7272ZM9.61753 13.7272V14.32L14.2999 14.2569L18.9823 14.3162V13.7272V13.3716H14.2999H9.61753V13.7272ZM5.46857 15.6239V16.2128H6.89107H8.31357V15.6239V15.2645H6.89107H5.46857V15.6239ZM9.61753 15.6239V16.2128H14.2999H18.9823V15.6239V15.2645H14.2999H9.61753V15.6239Z" fill="white"/>
</svg>

<svg xmlns="http://www.w3.org/2000/svg" viewBox="0 0 24 24"><path fill-rule="evenodd" d="M4.55 3.776c-.908 1.104-1.78 2.509-2.164 3.67-.319.97-.652 2.727-.059 4.387.007.293-.296.447-.296 1.422-.14 1.726.308 3.214 1.6 4.564 2.687 2.808 7.48 3.945 11.854 2.786 3.187-.844 5.665-2.957 6.342-5.453.11-.401.182-1.121.12-1.897-.05-.601-.245-1.145-.238-1.422.533-2.075.224-3.481-.06-4.386-.38-1.217-.943-2.047-1.776-3.151C18.956 3.08 18.753 2.91 18.39 3c-.544.137-2.885 1.745-3.776 2.618l-.89.873-1.727.014-1.727.013-.89-.875c-1.147-1.13-3.45-2.698-3.964-2.698-.1 0-.49.373-.866.83m.92 6.164v.593h2.844V9.58H5.47zm4.148 0v.593l2.37-.004h6.994v-.95H9.618zm-4.15 1.897v.592h2.846v-.948H5.47v.356m4.15 0v.588h9.364v-.948H9.618v.36m-4.15 1.896v.593h2.846v-.948H5.47v.355m4.15 0v.593l4.682-.063 4.682.06v-.945H9.618v.355m-4.15 1.897v.589h2.846v-.948H5.47v.359m4.15 0v.589h9.364v-.948H9.618v.359"/></svg>
